X:81
T: Die untreue Braut, S. 49
N: L0041
O: Luxemburg
S: Die Luxemburger Volkslieder lterer Zeit, Luxemburg 1904 posth.]
R: Hochzeitslied]
M: 2/4
L: 1/8
K: F
F | FAcA | AGG
G | BBdB | B2A
A | cAcA | c2fz |
dddd | c2A
c | cBGc | A2z

@@@ Tune index: 8135
